X: 2
T: The Carraroe
R: jig
M: 6/8
L: 1/8
K: Dmaj
|:DED F2A|dfe d2A| BdB AFA|dAF E2F|
DED F2A|dfe d2A|BdB Adf| afd e2f:|
|:dfa afa|bge edc|dfa afa|bge efe|
dfa afa|bge edB| d2B AFA|1 dAF E2D:|2 dAF E2F||


Tune 771	Setting 24743

